X: 1681
T: Sazlar Çalınır...
C: Yesârî Âsım Arsoy
O: Turkey
F: http://compmusic.upf.edu/node/140
N: hicaz--sarki--aksak--sazlar_calinir--yesari_asim_arsoy
N: makam= hicaz
N: form= sarki
N: usul= aksak = 9/8
M: 9/8
L: 1/16
K: C _7/8B ^f ^c 
Q: 1/4=152
%%MIDI tuningsystem comma53
A4 e2dc cBBA A6 | G4A2 B2d8z2  | e4 f2g2 a2g2 f2e2 d2 | 
w:  Saz lar  *  *  ça *  lı *  nır   |  Çam lı ca nın   |  bah çe le rin  | 
d3ef2 g2a2 =baa4z2  | g2=f2 e2a2 g2f2 e2ed dc | \
w:  de    |  bah çe le rin  | 
d8dc d=fed cBAG  | 
w:  de   SAZ  | 
ABcd e=fga gfeg fedf ed | cd e=fga fefg edef edcB  | 
w:   |   | 
A3a g=fed cBBA A6 | A4e2 dccB BAA6  | \
w:   |  Saz lar  *  *  ça *  lı *  nır   | 
G4 A2B2 d8 z2 | 
w:  Çam lı ca nın   | 
e4f2 g2a2 g2f2 e2d2  | d3e f2g2 a2=ba a4 z2 | \
w:  bah çe le rin  |  de    | 
g2 =f2e2 a2g2 f2e2 eddc  | 
w:  bah çe le rin  | 
d8 dcd=f edcB AG | AB cde=f gagf egfe dfed  | 
w:  de   SAZ  |   | 
cde=f gafe fged efed ce | d2 agg=f feed dcd6  | 
w:   |   | 
f4 g3f e2f2 g4 f2 | a3g=f2 e2ed dcd4z2  | \
w:  Bül bül  se si  var   |  şar *  kı la rın   | 
d4 e2=f2 e2d2 c2B2 A2 | 
w:  nağ me le rin  | 
A4cB c2ed e2a4z2  | g2=f2 e2d2 d2e2 c2B2 BA | \
w:  de    |  nağ *  me le rin  | 
A8dc d=fed cBAG  | 
w:  de   SAZ  | 
ABcd e=fga g^feg =fedf ed | cd e=fga fefg edef edce  | 
w:   |   | 
d2ag g=ffe eddc d6 | f4g3fe2 f2g4f2  | \
w:   |  Bül bül  se si  var   | 
a3g =f2e2 eddc d4 z2 | 
w:  şar *  kı la rın   | 
d4e2 =f2e2 d2c2 B2A2  | A4 cBc2 ede2 a4 z2 | \
w:  nağ me le rin  |  de    | 
g2 =f2e2 d2d2 e2c2 B2BA  | 
w:  nağ *  me le rin  | 
A8 dcd=f edcB AG | AB cde=f gag^f eg=fe dfed  | 
w:  de   SAZ  |   | 
cde=f gafe fged efed cB | AB cde=f ^gaba gba6  | 
w:   |   | 
b3a a4 ^g2a2 b4 a2 | a4a2 b2a^g =fef4z2  | \
w:  Bin  *  ta ze  e mel   |  var  şu  kı zın   | 
e4 =f2^g2 a3g f2g2 a2 | 
w:  han de le rin  | 
b16(3a^ga  | a4 b2c'2 d'4 c'2b2 ba | \
w:  de    |  han de le rin  | 
a6 aba^g =fga6  | b3a a4 ^g2a2 b4 a2 | 
w:  de   SAZ  |  Bin  *  ta ze  e mel   | 
a4a2 b2a^g =fef4z2  | e4 f2g2 a2g2 =f2e2 d2 | \
w:  var  şu  kı zın   |  han de le rin  | 
d3ef2 g2a2 =baa4z2  | 
w:  de    | 
g2=f2 e2a2 g2f2 e2ed dc | d8dc d=fed cBAG  | 
w:  han *  de le rin  |  de   SAZ  | 
ABcd e=fga gfeg fedf ed | cd e=fga fefg edef edce  | 
w:   |   | 
d2ag g=ffe eddc d6 | f4g3fe2 f2g4f2  | \
w:   |  Bül bül  se si  var   | 
a3g =f2e2 eddc d4 z2 | 
w:  şar *  kı la rın   | 
d4e2 =f2e2 d2c2 B2A2  | A4 cBc2 ede2 a4 z2 | \
w:  nağ me le rin  |  de    | 
g2 =f2e2 d2d2 e2c2 B2BA  | 
w:  nağ *  me le rin  | 
A3a g=fed cBBA A6 | |


